X:1
T:Captain Horn
M:C
L:1/8
Q:80
C:Strathspey
S:
K:HP
|: {g}e | \
{g}f3/2A/2{gAGAG}A2{g}B/2{d}G3/2{dc}d3/2e/2 | \
{g}f3/2A/2{gAGAG}A2{g}B/2d3/2{gdG}d3/2e/2 |
{g}f3/2A/2{gAGAG}A2{g}B/2{d}G3/2{gf}g2 | \
{g}f/2a3/2{ef}e3/2d/2{g}B/2d3/2{gdG}d :: \
e |
{g}f2{gfg}f3/2d/2{g}f2{g}f/2a3/2 | \
f2{gfg}f3/2d/2{g}e3/2f/2{ag}a2 | \
f2{gfg}f3/2d/2{g}e3/2f/2{gf}g3/2e/2 |
{ag}a3/2f/2{gef}e3/2d/2{g}B/2d3/2{gdG}d :|
